X:1
T:Winterreise, D.911
T:Der Lindenbaum
T:Wilhelm Müller
T:Franz Schubert
T:Winterreise, D.911
T:5. Der Lindenbaum
T:OpenScore (CC0)
T:OpenScore (CC0)
T:OpenScore (CC0)
T:OpenScore (CC0)
T:OpenScore (CC0)
T:OpenScore (CC0)
C:Franz Schubert
Z:Wilhelm Müller
Z:OpenScore (CC0)
%%score 1 { ( 2 4 ) | ( 3 5 ) }
L:1/8
Q:1/4=70
M:3/4
K:E
V:1 treble nm="Singstimme\nVoice"
V:2 treble nm="Pianoforte"
V:4 treble 
V:3 bass 
V:5 bass 
V:1
"^Mässig" z6 | z6 | z6 | z6 | z6 | z6 | z6 | z2 z2 z!p! B | B3 G G G | G2 E2 z E | F3 G (3AG F | %11
w: |||||||Am|Brun- nen vor dem|Tho- re da|steht ein Lin- * den-|
 E4 z B | B3 G G G | G2 E2 z E | F3 G (3AG F | E4 z E | F3 F F F | G>A B3 B | c3 B G E | F4 z F | %20
w: baum; ich|träumt' in sei- nem|Schat- ten so|man- chen sü- * ssen|Traum. Ich|schnitt in sei- ne|Rin- * de so|man- ches lie- be|Wort; es|
 F3 F F F | G>A B2 z B | (e2 B) G A3/2 F/ | E4 z2 ||[K:G] z6 | z6 | z6 | z2 z2 z B | B3 G G3/2 G/ | %29
w: zog in Freund' und|Lei- * de zu|ihm- * mich im- mer|fort.||||Ich|musst' auch heu- te|
 G2 E2 z E | F3 G (3AG F | E4 z B | B3 G G G | G2 E2 z E | F3 G (3AG F | E4 z E ||[K:E] F3 F F F | %37
w: wan- dern vor-|bei in tie- * fer|Nacht, da|hab' ich noch im|Dun- kel die|Au- gen zu- * ge-|macht. Und|sei- ne Zwei- ge|
 G>A B2 z B | c3 B G E | F4 z F | F3 F F F | G>A B2 z B | (e2 B) G A3/2 F/ | E4 z2 | z2 z2 z F | %45
w: rausch- * ten, als|rie- fen sie mir|zu: komm|her zu mir, Ge-|sel- * le, hier|find'st _ du dei- ne|Ruh!|Die|
 F3 F F A | =G2 E2 z E | F3 F B3/2 A/ | =G4 z B | =c3 B c B | =c2 =C2 z C | =C3 C C C | B,4 z2 | %53
w: kal- ten Win- de|blie- sen mir|grad' in's An- ge-|sicht, der|Hut flog mir vom|Kop- fe, ich|wen- de- te mich|nicht.|
 z6 | z6 | z6 | z6 | z2 z2 !fermata!z B | B3 G G G | G2 E2 z E | F3 G (3AG F | E4 z B | B3 G G G | %63
w: ||||Nun|bin ich man- che|Stun- de ent-|fernt von je- * nem|Ort, und|im- mer hör' ich's|
 G2 E2 z E | F3 G (3AG F | E4 z E | F3 F F F | G>A B z z B | c3 B GE | F4 z F | F3 F F F | %71
w: rau- schen: du|fän- dest Ru- * he|dort! Nun|bin ich man- che|Stun- * de ent-|fernt von je- nem|Ort, und|im- mer hör' ich's|
 G>A B2 z B | (e2 B) G A F | B4 z B | (e2 B) G (3BA F | E4 z z | z6 | z6 | z6 | z6 | z6 | z6 |] %82
w: rau- * schen: du|fän- * dest Ru- he|dort, du|fän- * dest Ru- * he|dort!|||||||
V:2
 (3(G,/E/G,/ (3F,/D/F,/ (3G,/E/G,/ (3B,/!>(!G/B,/ (3A,/F/A,/ (3G,/E/G,/)!>)! | [F,B,]>c !>!B4 | %2
 (3(G/e/G/ (3F/d/F/ (3G/e/G/!>(! (3B/!>)!g/B/ (3A/f/A/ (3G/e/G/ | %3
 (3F/d/F/ (3E/c/E/ (3D/B/D/ (3C/A/C/ (3B,/G/B,/ (3A,/F/A,/ | %4
 (3G,/E/G,/ (3A,/F/A,/"_cresc." (3G,/E/G,/ (3A,/F/A,/ (3G,/E/G,/ (3=D/^E/D/) | %5
 (3(C/F/C/ (3[^EG]/C/[EG]/) (.[FA].[CFA].[DFA].[=EFA]) |!>(! ([FA]3/2[EG]/4[B,F]/4) [B,F]4!>)! | %7
!ppp! ([FA]3/2[EG]/4[B,F]/4) [B,F]3!p! [B,GB] | [B,GB]3 (.[B,EG].[B,EG].[B,EG]) | %9
 (([B,EG]2 [G,B,E]2)) z [B,E] | [B,EF]4 [B,DF]2 | [G,B,E] ([GB][EG][GB][FA][B,F]) | %12
 [G,E] [B,GB]2 (.[B,EG].[B,EG].[B,EG]) | (([B,EG]2 [G,B,E]2)) z [B,E] | [B,EF]4 [B,DF]2 | %15
 [G,B,E] ([GB][EG][GB][FA][EG]) | [CEF]3!<(! (.[CEF].[B,DF].[B,DF])!<)! | %17
!>(! ([EG]>!>)![FA] [GB]3) ([GB] |!>(! [Ac]3!>)! [GB][EG][B,E]) | %19
 [B,DF]3/2(B/4!pp!c/4 !>!B>)([EG] !>![DB]2) | [CEF]3 (.[CEF].[B,DF]!<(!.[B,DF])!<)! | %21
!>(! ([EG]>[FA] [GB]3) [GB]!>)! |!>(!{B} (([Ge]2 [GB]))([EG][FA]>[B,F])!>)! | %23
 [G,E]3/2(G/4c/4 B>)([Fd] [Ee]2) || %24
[K:G] (3(G,/E/G,/ (3F,/^D/F,/ (3G,/E/G,/!>(! (3B,/!>)!G/B,/ (3A,/F/A,/ (3G,/E/G,/) | %25
 [F,B,]>(c !>!B4) |!<(! (3(G/e/G/ (3F/^d/F/ (3G/e/G/ (3B/g/B/ (3A/f/A/ (3G/e/G/)!<)! | [F^d] z z4 | %28
 (3([G,B,]EF) (G>B,) G z | (3([G,B,]EF) (G>B,) G z | (3(B,EF (3CEF (3B,^DF) | %31
 (3([G,B,]EG !>!B>G E) z | (3([G,B,]EF) (G>B,) G z | (3([G,B,]EF) (G>B,) G z | %34
 (3(B,EF (3CEF (3B,^DF) | (3([G,B,E]GB e>B e) z ||[K:E] (3(B,[DF][EG] [FA]2 [B,F]) z | %37
 (3(B,[EG][FA] [GB]2 [EG]) z |!<(! (3(B,EG!<)! [Ac]!>(![GB]!>)![EG][B,E]) | %39
 [B,DF]3/2(B/4c/4 B>)([EG] [DB]) z | (3(B,[DF][EG] [FA]2 [B,F]) z | (3(B,[EG][FA] [GB]2 [EG]) z | %42
!>(! (3([EG]!>)![GB][Be] [GB][EG] [FA]>[B,F]) | [G,E]3/2(G/4c/4 B>)([Fd] [Ee]) z | %44
 (3=G,/E/!>(!G,/ (3F,/D/F,/ (3G,/E/G,/ (3^A,/=G/A,/ (3B,/F/B,/ (3=C/E/C/!>)! | %45
 (3B,/B/B,/ (3z/ =c/=C/ (3z/ B/B,/[K:bass3] (3z/ A/A,/ (3z/ F/F,/ (3z/ D/D,/ | %46
[K:treble] (3=G,/E/!>(!G,/ (3F,/D/F,/ (3G,/E/G,/ (3^A,/=G/A,/ (3B,/F/B,/ (3=C/E/C/!>)! | %47
 (3B,/B/B,/ (3z/ =c/=C/ (3z/ B/B,/[K:bass] (3z/ F/F,/ (3z/ D/D,/ (3z/ B,/B,,/ | %48
[K:treble] (3=G,/E/G,/ (3F,/D/F,/"_cresc." (3G,/E/G,/ (3F,/D/F,/ (3G,/E/G,/ (3F,/D/F,/ | %49
 (3=G,/E/G,/ (3_A,/=F/A,/ (3G,/E/G,/ (3A,/F/A,/ (3G,/E/G,/ (3A,/F/A,/ | %50
 (3=G,/E/G,/ (3^G,/^E/G,/ (3=A,/F/A,/ (3G,/E/G,/ (3A,/F/A,/ (3G,/E/G,/ | %51
"_dim." (3A,/F/A,/ (3_B,/=G/B,/ (3A,/F/A,/ (3B,/G/B,/ (3A,/F/A,/ (3^A,/=G/A,/ | %52
!p! (3(B,/G/!<(!B,/ (3=C/A/C/ (3^C/^A/C/ (3=D/B/D/ (3^D/B/D/ (3E/=c/E/!<)! | %53
!>(! (3D/!>)!B/D/ (3E/=c/E/ (3D/B/D/ (3C/^A/C/"_dim." (3=C/=A/C/ (3B,/^G/B,/ | %54
 (3=C/A/C/ (3B,/G/B,/ (3A,/F/A,/ (3G,/^E/G,/ (3A,/F/A,/ (3G,/E/G,/ | %55
 (3A,/F/A,/ (3^A,/F/A,/ (3B,/F/!<(!B,/ (3=C/F/C/ (3B,/F/B,/ (3[EG]/B,/!<)![EG]/) | %56
 ([FA]3/2!>(![EG]/4[B,F]/4) [B,F]4!>)! | ([FA]3/2[EG]/4[B,F]/4) !fermata![B,F]3 z | %58
 (3(!>!GBe B>G B) z | (3(!>!GBe B>G B) z | (3(!>!ABd B>A B) z | (3(!>!GBe B>G B) z | %62
 (3(!>!GBe B>G B) z | (3(!>!GBe B>G B) z | (3(!>!ABd B>A B) z | (3(!>!GBe B>G B) z | %66
 (3(!>![B,B][Dd][Ff] [Dd]>[B,B] [Dd]) z | (3(!>![B,B][Ee][Gg] [Ee]>[B,B] [Ee]) z | %68
!<(! (3(B,EG!<)! [Ac]!>(![GB][EG][B,E])!>)! | [B,DF]3/2(B/4c/4 B>)([EG] [DB]) z | %70
 (3(!>![B,B][Dd][Ff] [Dd]>[B,B] [Dd]) z | (3(!>![B,B][Ee][Gg] [Ee]>[B,B] [Ee]) z | %72
!>(! (3([EG][GB][Be]) ([GB][EG][FA][B,DF])!>)! | [B,EGB]2-!<(! (3[B,EGB](Be!<)!!>(! (3geB)!>)! | %74
 (3([EG][GB]!<(![Be]!<)!!>(! [GB]!>)![EG][FA]>[B,F]) | E3/2(G/4c/4 B>)([Fd] [Ee]) z | %76
 (3(G,/!<(!E/G,/ (3F,/D/F,/ (3G,/E/G,/!<)!!>(! (3B,/G/B,/ (3A,/F/A,/ (3G,/E/G,/)!>)! | %77
 [F,B,]>(c !>!B4) | %78
!<(! (3(G/e/G/ (3F/d/F/ (3G/e/!<(!G/!<)!!<)!!>(!!>(! (3B/!>)!g/B/ (3A/f/A/ (3G/e/G/)!>)! | %79
 (3(F/d/F/ (3E/c/E/ (3D/B/D/"_decresc.""_dim." (3C/A/C/ (3B,/G/B,/ (3A,/F/A,/) | %80
 (3(G,/E/G,/ (3A,/F/A,/"_dim." (3G,/E/G,/ (3[DF]/B,/[DF]/ (3[EG]/B,/[EG]/ (3[DF]/A,/[DF]/) | %81
 ([A,DF]2 !fermata![G,B,E]4) |] %82
V:3
!pp!!<(! [E,,B,,-]6!<)! | [B,,,B,,] z z4 |!<(! [E,B,-]6!<)! | [B,,B,] z/ (C,/ (!>!B,,3) ^B,,) | %4
 (C,!>!^B,,C,!>!B,,C,=B,,) | (A,,G,,!<(!F,,E,,D,,C,,)!<)! | B,,,6 | B,,,4- B,,,[E,,E,] | %8
 [E,,E,]3 (E,,G,,B,,) | E,4 z (G,, | B,,4) B,,2 | E,, ([G,B,][E,G,][G,B,][F,A,][B,,F,]) | %12
 [E,,G,,E,] E,2 (E,,G,,B,,) | E,4 z (G,, | B,,4) B,,2 | E,, ([G,B,][E,G,][G,B,][F,A,][E,G,]) | %16
 [^A,,F,]3 (.[A,,F,].[=A,,B,,F,].[A,,B,,F,]) | [B,,E,]2 [B,,E,]3 ([G,B,] | %18
 [A,C]3 [G,B,][E,G,][G,,E,]) | [B,,F,]3/2(B,/4C/4 B,>)(([E,G,] [B,,F,]2)) | %20
 [^A,,F,]3 (.[A,,F,].[=A,,B,,F,].[A,,B,,F,]) | E,2 [B,,E,]3 [G,B,] | %22
{B,} (([G,E]2 [G,B,]))([E,G,][F,A,]>[B,,F,]) | [E,,G,,E,]3/2(G,/4C/4 !>!B,>)([B,,A,] [E,G,]2) || %24
[K:G]!<(! [E,,B,,-]6!<)! | [B,,,B,,] z z2 z2 |!>(! [E,B,-]6!>)! | [B,,B,]3/2!pp! (C,,/ !>!B,,,4) | %28
 (3([E,,B,,]E,F,) (!>!G,>B,,) G, z | (3([E,,B,,]E,F,) (!>!G,>B,,) G, z | %30
 (3(B,,E,F, (3C,E,F, (3B,,^D,F,) | (3([E,,B,,]E,G, !>!B,>G, E,) z | %32
 (3([E,,B,,]E,F,) (!>!G,>B,,) G, z | (3([E,,B,,]E,F,) (!>!G,>B,,) G, z | %34
 (3(B,,E,F, (3C,E,F, (3B,,^D,F,) | (3([E,,B,,E,]G,B, !>!E>B, E) z || %36
[K:E] (3(B,,F,G, !>![F,A,]2 [B,,F,]) z | (3(B,,[E,G,][F,A,] !>![G,B,]2 [E,G,]) z | %38
 (3(B,,E,G, [A,C][G,B,][E,G,][G,,E,]) | [B,,F,]3/2(B,/4C/4 !>!B,>)([E,G,] [B,,F,]) z | %40
 (3(B,,F,G, !>![F,A,]2 [B,,F,]) z | (3(B,,[E,G,][F,A,] !>![G,B,]2 [E,G,]) z | %42
 (3([E,G,][G,B,][B,E] [G,B,][E,G,] [F,A,]>[B,,F,]) | %43
 [E,,G,,E,]3/2(G,/4C/4 !>!B,>)([B,,A,] [E,G,]) z |!>(! (=C,,6!>)! |!p! B,,,)(=C,B,,F,,D,,B,,,) | %46
 (=C,,6 |!p! B,,,)(=C,B,,F,,D,,B,,,) | =C,,6- |!f! C,,(.=C,,.C,,.C,,.C,,.C,,) | =C,,6- | %51
 C,,(.=C,,.C,,.C,,.C,,.C,,) | B,,,4 B,,,2 | B,,,4 B,,,2 | B,,,4 B,,,2 | B,,,3 (.B,,,.B,,,.B,,,) | %56
 B,,,6 |!ppp! B,,,4- !fermata!B,,, z |!pp! (3(G,B,E B,>G, B,) z | (3(G,B,E B,>G, B,) z | %60
 (3(A,B,D B,>A, B,) z | (3(G,B,E B,>G, B,) z | (3(G,B,E B,>G, B,) z | (3(G,B,E B,>G, B,) z | %64
 (3(A,B,D B,>A, B,) z | (3(G,B,E B,>G, B,) z | [A,,B,,D,F,]4 z .B,, | [G,,B,,E,G,]4 z .G,, | %68
 (3(B,,E,G, [A,C][G,B,][E,G,][G,,E,]) | [B,,F,]3/2(B,/4C/4 !>!B,>)([E,G,] [B,,F,]2) | %70
 [A,,B,,D,F,]4 z .B,, | [G,,B,,E,G,]4 z .G,, | %72
 (3([B,,E,G,][G,B,][B,E]) ([G,B,][E,G,][F,A,][A,,B,,D,F,]) | %73
 [G,,B,,E,G,]2- (3([G,,B,,E,G,]B,E (3GEB,) | (3([E,G,][G,B,][B,E] [G,B,][E,G,][F,A,]>[B,,F,]) | %75
 [E,,G,,E,]3/2(G,/4C/4 !>!B,>)([B,,A,] [E,G,]) z |!pp! [E,,B,,-]6 | [B,,,B,,] z z2 z2 | [E,B,-]6 | %79
 [B,,B,]>(C, (!>!B,,3) !>!^B,,) | (C,!>!^B,,C,=B,,G,,B,,) | (B,,2 !fermata!E,4) |] %82
V:4
 x6 | x6 | x6 | x6 | x6 | x6 | x6 | x6 | x6 | x6 | x6 | x6 | x6 | x6 | x6 | x6 | x6 | B,2 B,3 x | %18
 x6 | x6 | x6 | B,2 B,3 x | x6 | x6 ||[K:G] x6 | x6 | x6 | x6 | x6 | x6 | x6 | x6 | x6 | x6 | x6 | %35
 x6 ||[K:E] x6 | x6 | x6 | x6 | x6 | x6 | x6 | x6 | x6 | x3[K:bass3] x3 |[K:treble] x6 | %47
 x3[K:bass] x3 |[K:treble] x6 | x6 | x6 | x6 | x6 | x6 | x6 | x6 | x6 | x6 | x6 | x6 | x6 | x6 | %62
 x6 | x6 | x6 | x6 | x6 | x6 | x6 | x6 | x6 | x6 | x6 | x6 | x6 | x6 | x6 | x6 | x6 | x6 | x6 | %81
 x6 |] %82
V:5
 x6 | x6 | x6 | x6 | x6 | x6 | x6 | x6 | x6 | x6 | x6 | x6 | x6 | x6 | x6 | x6 | x6 | %17
 (G,,>F,, E,,3) x | x6 | x6 | x6 | (G,,>F,, E,,3) x | x6 | x6 ||[K:G] x6 | x6 | x6 | x6 | x6 | x6 | %30
 x6 | x6 | x6 | x6 | x6 | x6 ||[K:E] (3:2:2B,,2 E, x4 | x6 | x6 | x6 | (3:2:2B,,2 E, x4 | x6 | x6 | %43
 x6 | x6 | x6 | x6 | x6 | x6 | x6 | x6 | x6 | x6 | x6 | x6 | x6 | x6 | x6 | E,4- E,B,, | %59
 E,4- E,B,, | B,,4- B,,B,, | E,4- E,B,, | E,4- E,.B,, | E,4- E,.G,, | B,,4- B,,.B,, | E,4- E,.G,, | %66
 x6 | x6 | x6 | x6 | x6 | x6 | x6 | x6 | x6 | x6 | x6 | x6 | x6 | x6 | x6 | x6 |] %82

